apps/16/webcam/webcam.svg

<?xml version="1.0" encoding="UTF-8" standalone="no"?>
<svg
   xmlns:dc="http://purl.org/dc/elements/1.1/"
   xmlns:cc="http://creativecommons.org/ns#"
   xmlns:rdf="http://www.w3.org/1999/02/22-rdf-syntax-ns#"
   xmlns:svg="http://www.w3.org/2000/svg"
   xmlns="http://www.w3.org/2000/svg"
   xmlns:sodipodi="http://sodipodi.sourceforge.net/DTD/sodipodi-0.dtd"
   xmlns:inkscape="http://www.inkscape.org/namespaces/inkscape"
   height="16"
   width="16"
   version="1.1"
   id="svg8"
   sodipodi:docname="camera-web-symbolic.svg"
   inkscape:version="0.92.3 (unknown)">
  <metadata
     id="metadata14">
    <rdf:RDF>
      <cc:Work
         rdf:about="">
        <dc:format>image/svg+xml</dc:format>
        <dc:type
           rdf:resource="http://purl.org/dc/dcmitype/StillImage" />
      </cc:Work>
    </rdf:RDF>
  </metadata>
  <defs
     id="defs12" />
  <sodipodi:namedview
     pagecolor="#808080"
     bordercolor="#808080666"
     borderopacity="1"
     objecttolerance="10"
     gridtolerance="10"
     guidetolerance="10"
     inkscape:pageopacity="0"
     inkscape:pageshadow="2"
     inkscape:window-width="1303"
     inkscape:window-height="801"
     id="namedview10"
     showgrid="false"
     inkscape:zoom="36.759766"
     inkscape:cx="8"
     inkscape:cy="8"
     inkscape:window-x="0"
     inkscape:window-y="34"
     inkscape:window-maximized="0"
     inkscape:current-layer="svg8" />
  <g
     transform="translate(-1073 -61)"
     id="g6"
     style="fill:#808080;fill-opacity:1">
    <path
       d="M1081 62.004a6 6 0 1 0 0 12 6 6 0 0 0 0-12zm0 4a2 2 0 0 1 2 2 2 2 0 0 1-2 2 2 2 0 0 1-2-2 2 2 0 0 1 2-2zm0 1a1 1 0 0 0-1 1 1 1 0 0 0 1 1 1 1 0 0 0 1-1 1 1 0 0 0-1-1zm2.465 3a.5.5 0 0 1 .035 0 .5.5 0 0 1 .5.5.5.5 0 0 1-.5.5.5.5 0 0 1-.5-.5.5.5 0 0 1 .465-.5z"
       fill="#808080"
       id="path2"
       style="fill:#808080;fill-opacity:1" />
    <path
       color="#000"
       d="M1081 73.003c-1.845 0-3.086.537-3.856 1.096-.769.56-1.091 1.182-1.091 1.182a.5.5 0 0 0 .447.722h9a.5.5 0 0 0 .447-.722s-.32-.623-1.09-1.182c-.769-.56-2.012-1.096-3.857-1.096z"
       fill="#808080"
       fill-rule="evenodd"
       font-family="sans-serif"
       font-weight="400"
       overflow="visible"
       style="line-height:normal;font-variant-ligatures:normal;font-variant-position:normal;font-variant-caps:normal;font-variant-numeric:normal;font-variant-alternates:normal;font-feature-settings:normal;text-indent:0;text-align:start;text-decoration-line:none;text-decoration-style:solid;text-decoration-color:#000;text-transform:none;text-orientation:mixed;shape-padding:0;isolation:auto;mix-blend-mode:normal;fill:#808080;fill-opacity:1"
       white-space="normal"
       id="path4" />
  </g>
</svg>

<svg xmlns="http://www.w3.org/2000/svg" width="16" height="16" version="1.1">
 <g style="fill:#808080" transform="translate(-1073,-61)">
  <path style="fill:#808080" d="M 1081,62.004 A 6,6 0 1 0 1081,74.004 6,6 0 0 0 1081,62.004 Z M 1081,66.004 A 2,2 0 0 1 1083,68.004 2,2 0 0 1 1081,70.004 2,2 0 0 1 1079,68.004 2,2 0 0 1 1081,66.004 Z M 1081,67.004 A 1,1 0 0 0 1080,68.004 1,1 0 0 0 1081,69.004 1,1 0 0 0 1082,68.004 1,1 0 0 0 1081,67.004 Z M 1083.5,70.004 A 0.5,0.5 0 0 1 1084,70.504 0.5,0.5 0 0 1 1083.5,71.004 0.5,0.5 0 0 1 1083,70.504 0.5,0.5 0 0 1 1083.5,70.004 Z"/>
  <path style="fill:#808080;fill-rule:evenodd" d="M 1081,73.003 C 1079.2,73.003 1077.9,73.54 1077.1,74.099 1076.4,74.659 1076.1,75.281 1076.1,75.281 A 0.5,0.5 0 0 0 1076.5,76.003 H 1085.5 A 0.5,0.5 0 0 0 1085.9,75.281 C 1085.9,75.281 1085.6,74.658 1084.9,74.099 1084.1,73.539 1082.8,73.003 1081,73.003 Z"/>
 </g>
</svg>
